X: 777
T: Paddy Won't You Drink Some Good Old Cider?
B: jims roots
M:2/4
L:1/4
R: Reel
Q: 1/4=100
K:D
V:1 
"D"D/F/A/B/ AA | "G"D/G/B/c/ BB |"D"D/F/A/B/ AA | "A"FF "D"ED|
"D"D/F/A/B/ AA | "G"D/G/B/c/ BB |"D"D/F/A/B/ AB/c/ | "A"dF "D"ED :|
|: "D"f>f "A"e>e | "D"fa/f/ "A"ec | "D"dc BA/A/ | "A"dF "D"GE :|]
% abcbook-tune_id 6298c279f81611bf9fa031c1


% abcbook-boost 0
% abcbook-tablature 
% abcbook-transpose 
% abcbook-lastupdated 1654178426360
% abcbook-soundfonts 
% abcbook-repeats 1


